!!!COM:	la Rue, Pierre de
!!!CDT:	~1452///-1518/11/20
!!!OTL:	Credo L'amour de moy
!!!AGN:	Mass section; Credo
!!!SCT:	Rue1037
!!!SCA:	Rue1037
!!!voices:	4
**kern	**kern	**kern	**kern
*staff4	*staff3	*staff2	*staff1
*Ivox	*Ivox	*Ivox	*Ivox
*I"Bassus	*I"Tenor	*I"Contra	*I"Discantus
*I'B	*I'T	*I'C	*I'D
*>[A,B]	*>[A,B]	*>[A,B]	*>[A,B]
*>A	*>A	*>A	*>A
*clefF4	*clefGv2	*clefGv2	*clefG2
*k[b-]	*k[b-]	*k[b-]	*k[b-]
*M2/1	*M2/1	*M2/1	*M2/1
*met(C|)	*met(C|)	*met(C|)	*met(C|)
!!section: Patrem omnipotentem
!!!OMD: Patrem omnipotentem
=1-	=1-	=1-	=1-
0r	0c	0r	0r
=2	=2	=2	=2
0c	1F	0r	0r
.	1F	.	.
=3	=3	=3	=3
1F	2.A/	0r	0r
.	4B-\	.	.
1F	2c\	.	.
.	2d\	.	.
=4	=4	=4	=4
1.A	1c	0r	0cc
.	1F	.	.
2B-\	.	.	.
=5	=5	=5	=5
2c\	0F	0r	1f
2d\	.	.	.
1c	.	.	1f
=6	=6	=6	=6
[0F	0r	1r	2.a/
.	.	.	4b-\
.	.	[1f	2cc\
.	.	.	2dd\
=7	=7	=7	=7
0F]	0r	2f\]	1cc
.	.	2f\	.
.	.	1f	1f
=8	=8	=8	=8
0r	0r	2g\	1r
.	.	1g	.
.	.	.	[1b-
.	.	2f\	.
=9	=9	=9	=9
0r	0r	2e\	2b-\]
.	.	4d\	2b-\
.	.	4c\	.
.	.	2d\	1b-
.	.	2d\	.
=10	=10	=10	=10
0r	1r	1c	2cc\
.	.	.	1cc
.	[1c	1r	.
.	.	.	2b-\
=11	=11	=11	=11
0r	2c\]	1r	2a/
.	2c\	.	4g/
.	.	.	4f/
.	2c\	1e	2g/
.	2c\	.	2g/
=12	=12	=12	=12
1r	2d\	2.f\	1f
.	1d	.	.
.	.	4g\	.
[1D	.	4a\	1r
.	.	4b-\	.
.	2c\	[2a\	.
=13	=13	=13	=13
2D\]	2B-\	2a\]	1r
2D\	4A/	1g	.
.	4G/	.	.
2D\	1A	.	1a
2D\	.	2f#i\	.
=14	=14	=14	=14
0G	2G/	[0g	2.b-\
.	2G/	.	.
.	.	.	4cc\
.	2.B-\	.	4dd\
.	.	.	4ee-i\
.	.	.	[2dd\
.	4c\	.	.
=15	=15	=15	=15
0G	2d\	0g]	2dd\]
.	2e\	.	2.cc\
.	1d	.	.
.	.	.	4bni\
.	.	.	4bni\
.	.	.	4a/
=16	=16	=16	=16
[0C	[0c	1g	[0cc
.	.	2g\	.
.	.	2g\	.
=17	=17	=17	=17
0C]	0c]	2e\	0cc]
.	.	2c\	.
.	.	2.e\	.
.	.	4f\	.
=18	=18	=18	=18
1c	0r	2g\	0r
.	.	2a\	.
2c\	.	1g	.
2c\	.	.	.
=19	=19	=19	=19
1A	0r	1c	0r
1F	.	2r	.
.	.	[2f\	.
=20	=20	=20	=20
2.A\	0r	2f\]	0r
.	.	4e\	.
4B-\	.	4d\	.
2c\	.	2e\	.
2d\	.	2f\	.
=21	=21	=21	=21
2c\	0r	2g\	0r
1F	.	1a	.
4E\	.	4g\	.
4D\	.	4f\	.
=22	=22	=22	=22
2E\	1c	2g\	0r
2F\	.	2.f\	.
1C	2c\	.	.
.	.	4e\	.
.	2c\	2e\	.
=23	=23	=23	=23
[0F	1A	[0f	1cc
.	1F	.	2cc\
.	.	.	2cc\
=24	=24	=24	=24
0F]	1A	0f]	1a
.	1d	.	1f
=25	=25	=25	=25
0r	2.c\	0r	2.a/
.	4B-\	.	4b-\
.	4A/	.	4cc\
.	4G/	.	4dd\
.	[2A/	.	[2cc\
=26	=26	=26	=26
0r	4A/]	0r	4cc\]
.	4B-\	.	4b-\
.	2c\	.	4a/
.	.	.	4g/
.	2d\	.	2b-\
.	2c\	.	4a/
.	.	.	[4g/
=27	=27	=27	=27
1r	1F	0r	4g/]
.	.	.	4f/
.	.	.	1f
1C	1G	.	.
.	.	.	2e/
=28	=28	=28	=28
1D	0F	1a	0f
2D\	.	2a\	.
[2D\	.	2a\	.
=29	=29	=29	=29
2D\]	0r	2a\	0r
2.D\	.	1f	.
4E\	.	.	.
4F\	.	4e\	.
4G\	.	4d\	.
=30	=30	=30	=30
2A\	1F	2c\	1r
2D\	.	1d	.
1E	1G	.	1g
.	.	2c#i\	.
=31	=31	=31	=31
0D	2A/	2d\	2f/
.	2B-\	2d\	2f/
.	2A/	4d\	4f/
.	.	4e\	4g/
.	2d\	4f\	4a/
.	.	4g\	4b-\
=32	=32	=32	=32
0r	2c\	2a\	2cc\
.	2B-\	2d\	2.dd\
.	1A	1e	.
.	.	.	4cc#i\
.	.	.	2cc#i\
=33	=33	=33	=33
1D	0r	0d	0dd
2D\	.	.	.
2D\	.	.	.
=34	=34	=34	=34
1F	1d	0r	0r
1G	2d\	.	.
.	2e\	.	.
=35	=35	=35	=35
[0D	2f\	0r	1.dd
.	1f	.	.
.	2e\	.	2ee\
=36	=36	=36	=36
0D]	1.d	0r	2ff\
.	.	.	1ff
.	4c\	.	2ee\
.	4B-\	.	.
=37	=37	=37	=37
0D	1A	1f	1.dd
.	1d	1f	.
.	.	.	4cc\
.	.	.	4b-\
=38	=38	=38	=38
0r	2.c\	2.e\	2.a/
.	4B-\	4d\	4g/
.	2c\	2e\	2a/
.	2d\	[2f\	[2b-\
=39	=39	=39	=39
0r	1A	2f\]	2b-\]
.	.	1e	1a
.	1B-	.	.
.	.	2d\	2g/
=40	=40	=40	=40
1c	[0A	0e	0a
2c\	.	.	.
2c\	.	.	.
=41	=41	=41	=41
1F	0A]	1a	0r
1F	.	2a\	.
.	.	2a\	.
=42	=42	=42	=42
2.G\	0r	1d	0r
4A\	.	.	.
2B-\	.	1d	.
2B-\	.	.	.
=43	=43	=43	=43
1.c	0r	2.e\	0r
.	.	4f\	.
.	.	4g\	.
.	.	4a\	.
4B-\	.	[2g\	.
4A\	.	.	.
=44	=44	=44	=44
4B-\	0r	2g\]	0r
4A\	.	.	.
4G\	.	1f	.
4F\	.	.	.
1G	.	.	.
.	.	2e\	.
=45	=45	=45	=45
0F	1.c	0f	1a
.	.	.	2a/
.	2c\	.	[2a/
=46	=46	=46	=46
0r	2c\	0r	2a/]
.	2c\	.	2a/
.	1d	.	1b-
=47	=47	=47	=47
1r	0c	1r	1a
1F	.	1f	2r
.	.	.	2a/
=48	=48	=48	=48
2F\	2r	2f\	2a/
1F	1c	1f	2a/
.	.	.	2a/
2F\	2c\	4e\	[2cc\
.	.	4d\	.
=49	=49	=49	=49
2A\	2c\	2c\	2cc\]
2A\	2c\	1f	4b-\
.	.	.	4a/
1G	2d\	.	1b-
.	2B-\	2e\	.
=50	=50	=50	=50
0F	1c	1f	0a
.	1d	1f	.
=51	=51	=51	=51
1A	2c\	1e	1cc
.	2c\	.	.
1A	2c\	1r	2cc\
.	2F/	.	2cc\
=52	=52	=52	=52
0D	1A	1a	1f
.	1d	2a\	1f
.	.	2a\	.
=53	=53	=53	=53
1F	2.c\	1f	2.a/
.	4B-\	.	4b-\
2.F\	4A/	2.f\	4cc\
.	4G/	.	4b-\
.	[2A/	.	[2cc\
4E\	.	4g\	.
=54	=54	=54	=54
2F\	4A/]	2a\	4cc\]
.	4G/	.	4b-\
2.G\	2.B-\	1d	4g/
.	.	.	4a/
.	.	.	2.b-\
4F\	4A/	.	.
4E\	4G/	[2e\	.
4D\	4F/	.	4a/
=55	=55	=55	=55
2E\	2B-\	4e\]	4g/
.	.	4d\	4f/
2F\	2A/	4c\	1f
.	.	4B-\	.
1C	1G	1c	.
.	.	.	2e/
=56	=56	=56	=56
2r	0F	0A	0f
2c\	.	.	.
2c\	.	.	.
2c\	.	.	.
=57	=57	=57	=57
2F\	0r	2r	0r
2.A\	.	2c\	.
.	.	2c\	.
4G\	.	.	.
[2F\	.	2c\	.
=58	=58	=58	=58
2F\]	1c	2e\	0r
4E\	.	2.f\	.
4D\	.	.	.
1C	2c\	.	.
.	.	4e\	.
.	2c\	2e\	.
=59	=59	=59	=59
2r	2F/	0f	0r
2F\	2F/	.	.
2F\	2.A/	.	.
2F\	.	.	.
.	4B-\	.	.
=60	=60	=60	=60
2E\	2c\	1r	0r
2.F\	1d	.	.
.	.	2r	.
4E\	.	.	.
4D\	[2c\	2f\	.
4C/	.	.	.
=61	=61	=61	=61
1D	2c\]	2f\	1r
.	2B-\	2f\	.
[1C	2c\	4e\	1cc
.	.	4d\	.
.	4B-\	4e\	.
.	4A/	4f\	.
=62	=62	=62	=62
1C]	0G	2g\	1cc
.	.	2.f\	.
1C	.	.	1cc
.	.	4e\	.
.	.	2e\	.
=63	=63	=63	=63
1D	2r	[0f	1a
.	2d\	.	.
1D	2d\	.	1f
.	2d\	.	.
=64	=64	=64	=64
1F	2c\	0f_	1a
.	2A/	.	.
1BB-	2B-\	.	1dd
.	2B-\	.	.
=65	=65	=65	=65
0F	1A	0f]	1cc
.	2A/	.	2cc\
.	2A/	.	[2cc\
=66	=66	=66	=66
2r	2.c\	2r	4cc\]
.	.	.	4b-\
2F\	.	2f\	4a/
.	4B-\	.	4g/
2F\	4A/	2d\	4f/
.	4G/	.	4e/
2E\	2B-\	2e\	[2g/
=67	=67	=67	=67
2F\	4B-\	2c\	2g/]
.	4A/	.	.
2D\	4G/	2B-\	2.f/
.	4F/	.	.
1C	1G	1c	.
.	.	.	4e/
.	.	.	2e/
=68	=68	=68	=68
0Fl	0Fl	0cl	0fl
!!LO:LB:i:g=z
=69||	=69||	=69||	=69||
*>B	*>B	*>B	*>B
*clefF4	*clefGv2	*clefGv2	*clefG2
*k[b-]	*k[b-]	*k[b-]	*k[b-]
*M2/1	*M2/1	*M2/1	*M2/1
*met(C|)	*met(C|)	*met(C|)	*met(C|)
!!section: Et incarnatus est
!!!OMD: Et incarnatus est
0r	0r	0r	1cc
.	.	.	2cc\
.	.	.	2cc\
=70	=70	=70	=70
0r	0r	1f	1.dd
.	.	2f\	.
.	.	2f\	2cc\
=71	=71	=71	=71
0r	0r	1.g	2.b-\
.	.	.	4a/
.	.	.	1g
.	.	2f\	.
=72	=72	=72	=72
0r	0r	2.e\	2r
.	.	.	2cc\
.	.	4d\	.
.	.	2c\	2cc\
.	.	2e\	2cc\
=73	=73	=73	=73
0r	0r	2f\	2.a/
.	.	2a\	.
.	.	.	4b-\
.	.	2a\	2cc\
.	.	[2g\	[2dd\
=74	=74	=74	=74
1G	0r	2g\]	2dd\]
.	.	4f\	2.cc\
.	.	4e\	.
1G	.	1d	.
.	.	.	4bni\
.	.	.	2bni\
=75	=75	=75	=75
1.A	1c	1c	0cc
.	1c	1r	.
2G\	.	.	.
=76	=76	=76	=76
2F\	1.d	0r	0r
2E\	.	.	.
1D	.	.	.
.	2c\	.	.
=77	=77	=77	=77
2r	2.B-\	0r	0r
1G	.	.	.
.	4A/	.	.
.	4G/	.	.
.	4A/	.	.
4F\	4B-\	.	.
4E\	4c\	.	.
=78	=78	=78	=78
4F\	2d\	0r	0r
4E\	.	.	.
4D\	1c	.	.
4C/	.	.	.
1D	.	.	.
.	2Bni\	.	.
=79	=79	=79	=79
0C	0c	0r	0r
=80	=80	=80	=80
1F	1c	1f	1a
1F	1c	1f	1a
=81	=81	=81	=81
1BB-	1d	1f	1b-
2F\	2c\	2f\	2a/
2G\	[2B-\	[2e\	[2g/
=82	=82	=82	=82
2E\	4B-\]	4e\]	2g/]
.	4F/	4d\	.
2F\	2A/	4c\	2.f/
.	.	4B-\	.
1C	1G	1c	.
.	.	.	4e/
.	.	.	2e/
=83	=83	=83	=83
2r	0F	0c	0f
2A\	.	.	.
2A\	.	.	.
2A\	.	.	.
=84	=84	=84	=84
2.c\	2r	0r	0r
.	2A/	.	.
4B-\	.	.	.
4c\	2A/	.	.
4B-\	.	.	.
4A\	2A/	.	.
4G\	.	.	.
=85	=85	=85	=85
0F	2.c\	0r	2r
.	.	.	2a/
.	4B-\	.	.
.	4c\	.	2a/
.	4B-\	.	.
.	4A/	.	2a/
.	4G/	.	.
=86	=86	=86	=86
0r	[0F	2r	2.cc\
.	.	2f\	.
.	.	.	4b-\
.	.	2f\	4cc\
.	.	.	4b-\
.	.	2f\	4a/
.	.	.	4g/
=87	=87	=87	=87
0r	0F]	2.a\	0f
.	.	4g\	.
.	.	4a\	.
.	.	4g\	.
.	.	4f\	.
.	.	4e\	.
=88	=88	=88	=88
0r	0r	1d	2r
.	.	.	2a/
.	.	2r	2b-\
.	.	2g\	2b-\
=89	=89	=89	=89
0r	0r	2f\	2.a/
.	.	1a	.
.	.	.	4b-\
.	.	.	4cc\
.	.	.	4dd\
.	.	[2g\	[2ee\
=90	=90	=90	=90
0r	0r	4g\]	2ee\]
.	.	4f\	.
.	.	4e\	1dd
.	.	4d\	.
.	.	1e	.
.	.	.	2cc#i\
=91	=91	=91	=91
0r	0r	0d	0dd
=92	=92	=92	=92
1F	1c	1f	1a
1F	1c	1f	1a
=93	=93	=93	=93
1B-	1d	1f	1b-
1F	1d	1a	2a/
.	.	.	[2dd\
=94	=94	=94	=94
1G	1d	1g	4dd\]
.	.	.	4cc\
.	.	.	4b-\
.	.	.	4a/
1G	1d	1g	1b-
=95	=95	=95	=95
[0D	1d	0f	0a
.	2r	.	.
.	2d\	.	.
=96	=96	=96	=96
0D_	2d\	0r	0r
.	2d\	.	.
.	[1f	.	.
=97	=97	=97	=97
0D_	2f\]	0r	2r
.	4e\	.	2dd\
.	4d\	.	.
.	2d\	.	2dd\
.	4c\	.	2dd\
.	4B-\	.	.
=98	=98	=98	=98
0D]	0A	1r	1.ff
.	.	2r	.
.	.	2d\	4ee\
.	.	.	4dd\
=99	=99	=99	=99
0r	0r	2d\	2dd\
.	.	2d\	4cc\
.	.	.	4b-\
.	.	[1f	2a/
.	.	.	[2dd\
=100	=100	=100	=100
0r	0r	2f\]	2dd\]
.	.	4e\	2cc\
.	.	4d\	.
.	.	2d\	2b-\
.	.	4c\	[2cc\
.	.	4B-\	.
=101	=101	=101	=101
0r	0r	2.A/	4cc\]
.	.	.	4b-\
.	.	.	1a
.	.	4c\	.
.	.	1B-	.
.	.	.	2g/
=102	=102	=102	=102
0r	1c	0A	0a
.	2c\	.	.
.	2c\	.	.
=103	=103	=103	=103
1A	1F	0r	0r
2A\	2.F/	.	.
2A\	.	.	.
.	4G/	.	.
=104	=104	=104	=104
0D	2A/	0r	1dd
.	2B-\	.	.
.	1A	.	2dd\
.	.	.	2dd\
=105	=105	=105	=105
0F	0A	1a	1cc
.	.	2a\	1cc
.	.	2a\	.
=106	=106	=106	=106
0BB-	0B-	2d\	1.ff
.	.	2d\	.
.	.	1d	.
.	.	.	4ee\
.	.	.	4dd\
=107	=107	=107	=107
2C/	1.G	1g	2ee\
2C/	.	.	2ee\
2E\	.	2a\	2cc\
[2D\	[2F/	[2a\	[2dd\
=108	=108	=108	=108
2D\]	2F/]	2a\]	4dd\]
.	.	.	4cc\
1G	1B-	2g\	4b-\
.	.	.	4a/
.	.	2e\	2g/
2F\	2A/	2f\	2a/
=109	=109	=109	=109
2E\	2B-\	1g	2g/
2C/	2c\	.	1cc
1G	1d	1g	.
.	.	.	2bni\
=110	=110	=110	=110
0C	0c	2e\	0cc
.	.	2g\	.
.	.	2g\	.
.	.	2e\	.
=111	=111	=111	=111
2r	0r	2.g\	0r
2c\	.	.	.
.	.	4f\	.
2c\	.	4e\	.
.	.	4d\	.
2c\	.	2c\	.
=112	=112	=112	=112
2A\	0r	2.e\	0r
2.c\	.	.	.
.	.	4f\	.
.	.	2g\	.
4B-\	.	.	.
4A\	.	[2a\	.
4G\	.	.	.
=113	=113	=113	=113
2.F\	2r	2a\]	0r
.	2c\	2.f\	.
4E\	.	.	.
1C	2c\	.	.
.	.	4e\	.
.	2c\	2e\	.
=114	=114	=114	=114
2F\	2.A/	1f	0r
2F\	.	.	.
.	4B-\	.	.
2E\	2c\	1r	.
2D\	[2d\	.	.
=115	=115	=115	=115
4F\	2d\]	0r	0r
4E\	.	.	.
4D\	1c	.	.
4C/	.	.	.
1D	.	.	.
.	2Bni\	.	.
=116	=116	=116	=116
0C	0c	0r	0r
=117	=117	=117	=117
1F	1c	1f	1a
1F	1c	1f	1a
=118	=118	=118	=118
2.BB-/	2.d\	1.f	2.b-\
4C/	4c\	.	8a/L
.	.	.	8g/J
2D\	2A/	.	4f/
.	.	.	4e/
2BB-/	[2B-\	4e\	[2g/
.	.	4d\	.
=119	=119	=119	=119
2C/	4B-\]	2c\	2g/]
.	4A/	.	.
2D\	2F/	2B-\	1f
1C	1G	1c	.
.	.	.	2e/
=120	=120	=120	=120
1F	0F	2r	1f
.	.	2c\	.
1r	.	2c\	2r
.	.	2c\	2a/
=121	=121	=121	=121
0r	0r	1.f	2a/
.	.	.	2a/
.	.	.	[1cc
.	.	4e\	.
.	.	4d\	.
=122	=122	=122	=122
0r	0r	2.c\	2cc\]
.	.	.	4b-\
.	.	4d\	4a/
.	.	4e\	4g/
.	.	4f\	4a/
.	.	[2g\	2b-\
=123	=123	=123	=123
0r	0r	2g\]	2a/
.	.	1f	2f/
.	.	.	1g
.	.	2e\	.
=124	=124	=124	=124
1F	1.c	0f	1f
2F\	.	.	1r
[2F\	2c\	.	.
=125	=125	=125	=125
4F\]	2c\	0r	0r
4E\	.	.	.
4D\	2c\	.	.
4C/	.	.	.
2E\	1c	.	.
2E\	.	.	.
=126	=126	=126	=126
2.D\	1.d	0r	0r
4E\	.	.	.
4F\	.	.	.
4G\	.	.	.
[2A\	2c\	.	.
=127	=127	=127	=127
2A\]	2B-\	0r	0r
1G	4A/	.	.
.	4G/	.	.
.	1A	.	.
2F#i\	.	.	.
=128	=128	=128	=128
1G	0G	1r	1b-
1r	.	1g	1b-
=129	=129	=129	=129
0r	0r	4f\	4a/
.	.	4e\	4g/
.	.	4f\	4a/
.	.	4g\	4b-\
.	.	2a\	2cc\
.	.	2f\	[2dd\
=130	=130	=130	=130
1G	0r	2g\	2dd\]
.	.	4f\	1cc
.	.	4e\	.
1G	.	4d\	.
.	.	4c\	.
.	.	2d\	2b-\
=131	=131	=131	=131
2.A\	1r	2c\	1cc
.	.	2c\	.
4D\	.	.	.
1D	2r	2d\	1a
.	2d\	2d\	.
=132	=132	=132	=132
1D	2d\	1.f	1r
.	2d\	.	.
2.D\	[1d	.	2r
.	.	4e\	2dd\
4E\	.	4d\	.
=133	=133	=133	=133
2F\	2d\]	2d\	2dd\
2G\	2d\	4c\	2dd\
.	.	4B-\	.
[1D	2d\	2A/	[1ff
.	2d\	2B-\	.
=134	=134	=134	=134
1D]	1.f	1A	2ff\]
.	.	.	4ee\
.	.	.	4dd\
[1D	.	1A	2dd\
.	4e\	.	4cc\
.	4d\	.	4b-\
=135	=135	=135	=135
1D]	1d	1A	2a/
.	.	.	2b-\
1E	1c	1G	4cc\
.	.	.	4b-\
.	.	.	4a/
.	.	.	4g/
=136	=136	=136	=136
2D\	2d\	2A/	2f/
2D\	2f\	2a\	2dd\
2D\	2f\	2a\	2dd\
2D\	2f\	2a\	2dd\
=137	=137	=137	=137
1A	1e	2.a\	1cc
.	.	4g\	.
2A\	2c\	4f\	2a/
.	.	4e\	.
[2G\	[2d\	2g\	[2b-\
=138	=138	=138	=138
4G\]	4d\]	2e\	2b-\]
4F\	4c\	.	.
2F\	4B-\	2f\	1a
.	4A/	.	.
1G	1B-	1d	.
.	.	.	2g/
=139	=139	=139	=139
1c	0A	0e	[0a
2c\	.	.	.
2c\	.	.	.
=140	=140	=140	=140
2A\	1c	0r	0a]
2A\	.	.	.
[1F	2c\	.	.
.	2c\	.	.
=141	=141	=141	=141
1F]	2A/	1a	0r
.	2A/	.	.
2r	2F/	2a\	.
2F\	2F/	2a\	.
=142	=142	=142	=142
2.A\	2.c\	2.f\	0r
4B-\	4d\	4g\	.
2c\	2e\	2a\	.
2d\	2f\	2b-\	.
=143	=143	=143	=143
1c	2e\	2.a\	0r
.	1c	.	.
.	.	4g\	.
2A\	.	4f\	.
.	.	4e\	.
[2B-\	[2d\	[2g\	.
=144	=144	=144	=144
4B-\]	2d\]	4g\]	0r
4A\	.	4f\	.
4G\	1c	2.f\	.
4F\	.	.	.
1G	.	.	.
.	.	4e\	.
.	2B-\	2e\	.
=145	=145	=145	=145
1F	1c	1f	1r
[1F	[1c	[1f	[1a
=146	=146	=146	=146
2F\]	2c\]	2f\]	2a/]
2F\	2c\	2f\	2a/
2BB-/	2B-\	2.f\	2dd\
2BB-/	2B-\	.	2dd\
.	.	4g\	.
=147	=147	=147	=147
2.F\	1A	2a\	1cc
.	.	2a\	.
4G\	.	.	.
2A\	1c	4a\	2a/
.	.	4g\	.
[2A\	.	4f\	[2cc\
.	.	4e\	.
=148	=148	=148	=148
4A\]	2A/	2.f\	4cc\]
4G\	.	.	4b-\
4F\	2.c\	.	4a/
4E\	.	4e\	4g/
2F\	.	4d\	2a/
.	4B-\	4c\	.
2E\	4A/	[2c\	[2g/
.	4G/	.	.
=149	=149	=149	=149
2F\	2A/	2c\]	2g/]
2D\	2F/	2B-\	2.f/
1C	1G	1c	.
.	.	.	4e/
.	.	.	2e/
=150	=150	=150	=150
[0F	1F	1r	0f
.	1r	[1f	.
=151	=151	=151	=151
0F]	0r	2f\]	1r
.	.	1a	.
.	.	.	1cc
.	.	2g\	.
=152	=152	=152	=152
0r	0r	2f\	2cc\
.	.	4e\	1cc
.	.	4d\	.
.	.	1e	.
.	.	.	2cc\
=153	=153	=153	=153
0r	0r	2.d\	1.dd
.	.	4e\	.
.	.	4f\	.
.	.	4g\	.
.	.	[2a\	2cc\
=154	=154	=154	=154
0r	0r	2a\]	2b-\
.	.	1g	4a/
.	.	.	4g/
.	.	.	1a
.	.	2f\	.
=155	=155	=155	=155
0r	2r	2g\	2g/
.	1B-	4f\	1dd
.	.	4e\	.
.	.	2d\	.
.	2A/	[2e\	2cc\
=156	=156	=156	=156
0r	1G	4e\]	2b-\
.	.	4d\	.
.	.	1g	4a/
.	.	.	4g/
.	1d	.	1a
.	.	2f#i\	.
=157	=157	=157	=157
0r	2.e\	1g	2.g/
.	4c\	.	4a/
.	4d\	1r	4b-\
.	4e\	.	4cc\
.	[2f\	.	[2dd\
=158	=158	=158	=158
0r	4f\]	0r	4dd\]
.	4e\	.	4g/
.	4d\	.	1cc
.	4c\	.	.
.	1d	.	.
.	.	.	2bni\
=159	=159	=159	=159
*M3/1	*M3/1	*M3/1	*M3/1
*met(3)	*met()	*met(3)	*met()
!	!LO:N:vis=0	!	!LO:N:vis=0
1A	0.c	1e	0.cc
1A	.	1e	.
1A	.	1e	.
=160	=160	=160	=160
*	*M3/1	*	*M3/1
*	*met(3)	*	*met(3)
!!primary-mensuration: met(3)
[0.D	0.r	1f	1dd
.	.	2d\	1dd
.	.	2e\	.
.	.	2f\	1dd
.	.	2g\	.
=161	=161	=161	=161
0D]	1d	0a	0ff
.	1d	.	.
1r	1c	1a	1ee
=162	=162	=162	=162
1D	0f	1a	0dd
1D	.	2g\	.
.	.	1f	.
1D	1f	.	2cc\
.	.	4e\	2b-\
.	.	4d\	.
=163	=163	=163	=163
1.F	0f	0c	0a
2G\	.	.	.
1A	1e	1r	1r
=164	=164	=164	=164
[0.D	0d	1.f	0.r
.	.	2d\	.
.	2c\	2f\	.
.	2B-\	2g\	.
=165	=165	=165	=165
0.D]	0A	0a	1dd
.	.	.	1dd
.	1r	1a	1dd
=166	=166	=166	=166
0.r	1d	0a	0ff
.	1d	.	.
.	1c	1r	1ee
=167	=167	=167	=167
0D	0f	0a	0dd
1D	2e\	1a	2cc\
.	2d\	.	2b-\
=168	=168	=168	=168
1F	2c\	0f	2a/
.	2B-\	.	2g/
1BB-	1d	.	1.b-
[1F	1c	[1f	.
.	.	.	2a/
=169	=169	=169	=169
1F]	1A	1f]	0a
0G	1.B-	0d	.
.	.	.	1g
.	2c\	.	.
=170	=170	=170	=170
1c	0.A	0.e	0.a
1c	.	.	.
1c	.	.	.
=171	=171	=171	=171
0F	1c	0.r	0.r
.	1c	.	.
1F	1c	.	.
=172	=172	=172	=172
1.A	0F	0.r	1cc
.	.	.	1cc
2B-\	.	.	.
2c\	1F	.	1cc
2d\	.	.	.
=173	=173	=173	=173
1.c	1.A	0.r	0f
2B-\	2B-\	.	.
2A\	2c\	.	1f
2G\	2d\	.	.
=174	=174	=174	=174
1A	1.c	1.f	1.a
0F	.	.	.
.	2B-\	2g\	2b-\
.	2A/	1a	2cc\
.	2G/	.	2dd\
=175	=175	=175	=175
1.F	1.A	1.a	1.cc
2G\	2B-\	2g\	2b-\
1A	1c	2e\	2a/
.	.	2f\	2g/
=176	=176	=176	=176
1G	1d	1g	1b-
1C	1.c	1e	2a/
.	.	.	1g
[1D	.	[1f	.
.	2B-\	.	2f/
=177	=177	=177	=177
1D]	2A/	2f\]	0f
.	2F/	2B-\	.
0C	0G	1c	.
.	.	1g	1e
=178	=178	=178	=178
*M2/1	*M2/1	*M2/1	*M2/1
*met(C|)	*met(C|)	*met(C|)	*met(C|)
2r	0F	2a\	0f
2A\	.	1a	.
2A\	.	.	.
2A\	.	4g\	.
.	.	4f\	.
=179	=179	=179	=179
2.c\	2r	2.e\	0r
.	2A/	.	.
4B-\	.	4d\	.
4c\	2A/	1e	.
4B-\	.	.	.
4A\	2A/	.	.
4G\	.	.	.
=180	=180	=180	=180
1F	2.c\	0f	2r
.	.	.	2a/
.	4B-\	.	.
1F	4c\	.	2a/
.	4B-\	.	.
.	4A/	.	2a/
.	4G/	.	.
=181	=181	=181	=181
2.A\	1F	1f	2.cc\
4G\	.	.	4b-\
4A\	2r	1f	4cc\
4G\	.	.	4b-\
4F\	2c\	.	4a/
4E\	.	.	4g/
=182	=182	=182	=182
2D\	2d\	0f	2f/
2F\	2A/	.	2cc\
1BB-	1B-	.	1dd
=183	=183	=183	=183
1F	1A	2.f\	2cc\
.	.	.	2a/
.	.	4e\	.
2r	2r	2d\	1b-
2BB-/	2d\	[2f\	.
=184	=184	=184	=184
1F	2c\	4f\]	1a
.	.	4e\	.
.	2.f\	2c\	.
1D	.	2d\	2r
.	4e\	.	.
.	2f\	2B-\	[2ff\
=185	=185	=185	=185
1C	1g	2.c\	2ff\]
.	.	.	2ee\
.	.	4d\	.
2r	2r	2e\	2cc\
[2G\	[2g\	2d\	[2dd\
=186	=186	=186	=186
2G\]	2g\]	2B-\	2dd\]
2A\	2e\	2c\	2cc\
2F\	4f\	2d\	2a/
.	4e\	.	.
[2G\	4d\	[2B-\	[2b-\
.	4c\	.	.
=187	=187	=187	=187
4G\]	2.B-\	4B-\]	4b-\]
4F\	.	4c\	4a/
4E\	.	2d\	4g/
4D\	4A/	.	4f/
2.C/	1c	2.e\	2a/
.	.	.	[2g/
4D\	.	4f\	.
=188	=188	=188	=188
2E\	4B-\	2g\	4g/]
.	4A/	.	4f/
2F\	4G/	1c	1f
.	4F/	.	.
1C	1G	.	.
.	.	2c\	2e/
=189	=189	=189	=189
1F	1A	0d	1.f
1BB-	1B-	.	.
.	.	.	4e/
.	.	.	4d/
=190	=190	=190	=190
0C;	0G;	0c;	0e;
=191	=191	=191	=191
[0Fl	[0Fl	[0cl	0f
=192	=192	=192	=192
0F]	0F]	0c]	0fl
==	==	==	==
*-	*-	*-	*-
!!!RDF**kern: l=long note in original notation
!!!RDF**kern: i=editorial accidental
!!!ENC:	Chris Gage 07-08-2013
!!!END:	2013/07/31/
!!!EED:	Jesse Rodin
!!!EEV:	2013/08/05/
!!!ONB:	Translated from MusicXML and edited on 2013/08/05/ by Craig Sapp
!!muse2ps: C^@{COM}^i2I150v85,85,85,150Q16
